card-bulleted-settings-outline.svg

<svg fill="currentColor" viewBox="0 0 24 24"><path d="M9 22v2H7v-2zm4 0v2h-2v-2zm4 0v2h-2v-2zm-5-7h-2v-2h2zm6 0h-4v-2h4zM8 11H6V9h2zm10 0h-8V9h8zm2 9H4a2 2 0 0 1-2-2V6a2 2 0 0 1 2-2h16a2 2 0 0 1 2 2v12a2 2 0 0 1-2 2M4 6v12h16V6z"/></svg>

<svg  viewBox="0 0 24 24" fill="currentColor"><path  d="M9,22V24H7V22H9M13,22V24H11V22H13M17,22V24H15V22H17M12,15H10V13H12V15M18,15H14V13H18V15M8,11H6V9H8V11M18,11H10V9H18V11M20,20H4A2,2 0 0,1 2,18V6A2,2 0 0,1 4,4H20A2,2 0 0,1 22,6V18A2,2 0 0,1 20,20M4,6V18H20V6H4Z"/></svg>
